X: 39952
T: Thorp Haywood's
R: hornpipe
M: 4/4
K: Cmajor
|:(3GGG G2 (3AAA A2|(3GGG E>G c4|(3ccc A>c e4|(3ccc A>c e2 c2|
(3GGG G2 (3AAA A2|(3GGG E>G c4|(3cdc B>A G2 [e2G2]|[d4G4F4] [c4G4E4]:|
e2 A2 e2 A2|e>dc>B A4|^G>eE>e B>eE>e|A>^GA>B c>Bc>d|
e2 A2 e2 A2|e>dc>B A4|^G>Bd>f e>dc>B|A4 [_A4_G4_E4C4]|
(3GGG G2 (3AAA A2|(3GGG E>G c4|(3ccc A>c e4|(3ccc A>c e2 c2|
(3GGG G2 (3AAA A2|(3GGG E>G c4|(3cdc B>A G2 [e2G2] [d4G4F4] [c4G4E4]||

